X:1
T:GB/7c/8A Lord Bateman Version 2 of 2
T:GB/7c/8A Lord Bateman Version 2 of 2
T:Verrall
C:Verrall
L:1/8
M:3/2
K:C
V:1 treble 
V:1
 G | Bc d2 cA |[M:5/4] GF G2 c |[M:3/2] de f2 ed |[M:5/4] ce d2 G |[M:3/2] dd g2 fd | cA F2 GA | %7
 Bc d2 cB | GF G2 |] %9

